X: 38664
T: Straits Of Sherkin, The
R: reel
M: 4/4
K: Dmajor
z|BAFE F2 AB|AFED FA B/c/d|f2 ed efBF|ABcd cBAd|
ABFE F2 AB|AFED FA B/c/d|f2 ed BDEF|AFEA FDD:|
z|a3 b fefa|b2 af eafe|f2 ed efBF|ABcd cBAd|
[1 baab fefa|b2 af eafe|f2 ed BDEF|AFEA FDD:|
[2 ABFE F2 AB|AFED FA B/c/d|f2 ed BDEF|AFEA FDD||

